X: 5
T:Sally Gardens, The
M:C|
L:1/8
R:Reel
K:G
DF[|:G2DG B2GB|dBeB dBAB|d2Bd egdB|AcBA GEDE|!
G2DG B2GB|dBeB dBAB|d2Bd egdB|1AcBA G2DF:|2AcBA G2Bc|!
|:dggf g2de|g2bg aged|eaag a2eg|a2bg ageg|!
dggf g2de|g2bg ageg|d2Bd egdB|1AcBA G2Bc:|2AcBA G2DF|]!
